module-2/14 - Scalable Vector Graphics (SVGs) and Responsive Navigation/img/membership-member-subscription-id-card-svgrepo-com.svg

<?xml version="1.0" encoding="utf-8"?>
<!-- Uploaded to SVGRepo https://www.svgrepo.com -->
<svg version="1.1" id="Layer_1" xmlns="http://www.w3.org/2000/svg" xmlns:xlink="http://www.w3.org/1999/xlink" x="0px" y="0px"
	 width="256px" height="178px" viewBox="0 0 256 178" enable-background="new 0 0 256 178" xml:space="preserve">
<path d="M183.882,38.248c0,8.995,7.292,16.287,16.287,16.287c8.995,0,16.287-7.292,16.287-16.287s-7.292-16.287-16.287-16.287
	C191.174,21.961,183.882,29.253,183.882,38.248z M167.193,92.774v-12.72c0-11.179,9.126-20.349,20.349-20.349h26.642
	c11.179,0,20.349,9.126,20.349,20.349v12.72H167.193z M95.721,2.416v23.543c-2.871,0-8.236,0.615-12.1,1.784
	c-10.322,3.123-19.031,10.11-24.369,21.786L2,175.584h78.75l5.069-16.893c22.193-5.386,38.809-22.446,45.51-43.894l0.084,0.001
	c0.167-0.748,0.389-1.483,0.627-2.214H254V2.416H95.721z M246.125,104.709H115.408c-2.957,15.124-14.146,28.884-29.224,35.043
	c-0.487,0.199-0.992,0.293-1.488,0.293c-1.552,0-3.023-0.924-3.647-2.449c-0.822-2.013,0.143-4.311,2.156-5.134
	c14.768-6.032,25.085-20.66,25.105-35.583v-3.981h40.386c5.966-0.001,10.803-4.837,10.803-10.803c0-5.962-4.83-10.797-10.793-10.802
	l-70.91-0.053c-2.174,0-3.938-1.763-3.938-3.938s1.763-3.938,3.938-3.938h25.799V10.291h142.529V104.709z M115.408,25.959H159.5
	v7.875h-44.092V25.959z M115.408,45.647H159.5v7.875h-44.092V45.647z"/>
</svg>

<svg xmlns="http://www.w3.org/2000/svg" xml:space="preserve" viewBox="0 0 256 178">
    <path d="M183.9 38.2a16.3 16.3 0 1 0 32.6 0 16.3 16.3 0 0 0-32.6 0m-16.7 54.6V80c0-11.2 9.1-20.4 20.3-20.4h26.7c11.2 0 20.3 9.1 20.3 20.4v12.7zM95.7 2.4V26a38.5 38.5 0 0 0-36.5 23.6L2 175.5h78.8l5-17a64 64 0 0 0 45.5-43.8h.1l.6-2.2h122V2.4zm150.4 102.3H115.4a49 49 0 0 1-29.2 35 4 4 0 1 1-3-7.2 40 40 0 0 0 25.1-35.6v-4h40.4a10.8 10.8 0 0 0 0-21.6H77.8a4 4 0 0 1 0-8h25.8v-53h142.5zM115.4 26h44.1v7.8h-44zm0 19.6h44.1v8h-44z"/>
</svg>
